src/24/panel/system-restart-panel.svg

<svg xmlns="http://www.w3.org/2000/svg" width="24" height="24"><defs><style id="current-color-scheme" type="text/css"></style></defs><path d="M12 6a1 1 0 0 0-1 1 1 1 0 0 0 1 1 4 4 0 0 1 4 4h-2l3 4 3-4h-2a6 6 0 0 0-6-6zM7 8l-3 4h2a6 6 0 0 0 6 6 1 1 0 0 0 1-1 1 1 0 0 0-1-1 4 4 0 0 1-4-4h2z" fill="currentColor" color="#bebebe"/></svg>

<svg xmlns="http://www.w3.org/2000/svg" width="24" height="24" version="1.1">
 <defs>
  <style id="current-color-scheme" type="text/css">
   .ColorScheme-Text { color:#bebebe; } .ColorScheme-Highlight { color:#5294e2; }
  </style>
 </defs>
 <path style="fill:currentColor" class="ColorScheme-Text" d="m 12,6.0000001 a 1,1 0 0 0 -1,1 1,1 0 0 0 1,1 A 4,4 0 0 1 16,12 l -2,0 3,4 3,-4 -2,0 A 6,6 0 0 0 12,6.0000001 Z m -5.0000002,2 L 3.9999999,12 5.9999998,12 A 6,6 0 0 0 12,18 1,1 0 0 0 13,17 1,1 0 0 0 12,16 4,4 0 0 1 8.0000004,12 L 10,12 Z"/>
</svg>
